images/osmondagi-bolalar.svg

<svg width="136" height="68" viewBox="0 0 136 68" fill="none" xmlns="http://www.w3.org/2000/svg">
<mask id="mask0_5_880" style="mask-type:luminance" maskUnits="userSpaceOnUse" x="36" y="14" width="64" height="40">
<path d="M99.9719 14H36.0215V54H99.9719V14Z" fill="white"/>
</mask>
<g mask="url(#mask0_5_880)">
<path d="M44.2263 46.9154V50.1056C44.2263 52.7101 43.2023 53.7564 40.3541 53.7564H36.0215V34.208H40.0859C42.9117 34.208 43.9334 35.2297 43.9334 37.8588V40.3918C43.9334 41.9992 43.5444 43.0209 42.5697 43.5798C43.7389 44.0918 44.2263 45.138 44.2263 46.9154ZM38.9681 36.5442V42.6565H40.0859C40.6224 42.6565 40.9801 42.4329 40.9801 41.6571V37.5436C40.9801 36.7633 40.6157 36.5442 40.0859 36.5442H38.9681ZM41.2797 45.9697C41.2797 45.1917 40.8907 44.9972 40.3541 44.9972H38.9681V51.4246H40.3541C40.8907 51.4246 41.2797 51.2011 41.2797 50.4499V45.9697Z" fill="#FCCB6A"/>
<path d="M49.8825 33.9639H49.9317C52.8671 33.9639 53.9067 34.9856 53.9067 37.6169V50.3466C53.9067 52.9534 52.8604 53.9996 49.9161 53.9996H49.8825C46.936 53.9996 45.8897 52.9757 45.8897 50.3466V37.6169C45.8808 35.0146 46.9516 33.9639 49.8825 33.9639ZM48.8363 37.3732V50.5903C48.8363 51.3705 49.2968 51.5896 49.8825 51.5896H49.9317C50.5398 51.5896 50.978 51.3661 50.978 50.5903V37.3732C50.978 36.6176 50.5644 36.3739 49.9317 36.3739H49.8825C49.2879 36.3739 48.8273 36.593 48.8273 37.3732H48.8363Z" fill="#FCCB6A"/>
<path d="M62.0689 51.4202V53.7564H55.4961V34.208H58.4427V51.4224L62.0689 51.4202Z" fill="#FCCB6A"/>
<path d="M69.0307 50.2509H66.8398L66.5491 53.7564H63.3097L65.9634 34.208H69.9071L72.5608 53.7564H69.3325L69.0307 50.2509ZM68.8362 47.9147L68.1543 39.8798L67.9307 37.3737L67.7072 39.8798L67.0253 47.9147H68.8362Z" fill="#FCCB6A"/>
<path d="M80.3273 51.4202V53.7564H73.7545V34.208H76.71V51.4224L80.3273 51.4202Z" fill="#FCCB6A"/>
<path d="M87.2891 50.2509H85.0982L84.8053 53.7564H81.5681L84.2218 34.208H88.1655L90.8192 53.7564H87.582L87.2891 50.2509ZM87.0946 47.9147L86.4239 39.8798L86.2004 37.3737L85.9768 39.8798L85.2949 47.9147H87.0946Z" fill="#FCCB6A"/>
<path d="M99.9718 53.7564H97.0543L96.9336 46.7946C96.909 45.8691 96.4865 45.6254 95.8627 45.6254H94.9685V53.7564H92.0107V34.208H96.0774C98.901 34.208 99.9227 35.2297 99.9227 37.8588V41.0513C99.9227 42.7548 99.4599 43.8011 98.3577 44.3377C99.4755 44.825 99.8198 45.9451 99.8444 47.9147L99.9718 53.7564ZM94.9573 36.542V43.2869H96.0751C96.6094 43.2869 96.9694 43.0634 96.9694 42.3122V37.5436C96.9694 36.7633 96.6027 36.5442 96.0751 36.5442L94.9573 36.542Z" fill="#FCCB6A"/>
<path d="M74.792 20.5566H74.251V28.169H74.7987C75.0737 28.169 75.2727 28.0572 75.2727 27.6704V21.0686C75.266 20.6707 75.0782 20.5566 74.792 20.5566Z" fill="black"/>
<path d="M64.7896 20.4697H64.765C64.4655 20.4697 64.2307 20.5837 64.2307 20.9817V27.7445C64.2307 28.1447 64.4543 28.2564 64.765 28.2564H64.7896C65.1026 28.2564 65.3262 28.1447 65.3262 27.7445V20.9817C65.3262 20.5949 65.1138 20.4697 64.7896 20.4697Z" fill="black"/>
<path d="M47.962 20.4697H47.9374C47.6379 20.4697 47.4009 20.5837 47.4009 20.9817V27.7445C47.4009 28.1447 47.6379 28.2564 47.9374 28.2564H47.962C48.2728 28.2564 48.4986 28.1447 48.4986 27.7445V20.9817C48.4986 20.5949 48.2862 20.4697 47.962 20.4697Z" fill="black"/>
<path d="M79.6878 20.9814L79.5761 22.2647L79.2273 26.3738H80.1484L79.7996 22.2647L79.6878 20.9814Z" fill="black"/>
<path d="M89.6878 17.7247H44.8991C44.7527 17.7229 44.6075 17.7502 44.4718 17.8051C44.3361 17.8599 44.2127 17.9412 44.1087 18.0442C44.0046 18.1471 43.9221 18.2697 43.8659 18.4049C43.8097 18.54 43.7809 18.685 43.7813 18.8313V30.0095C43.7813 30.306 43.899 30.5903 44.1087 30.7999C44.3183 31.0096 44.6026 31.1273 44.8991 31.1273H89.6878C89.9843 31.1273 90.2686 31.0096 90.4782 30.7999C90.6879 30.5903 90.8056 30.306 90.8056 30.0095V18.8313C90.8027 18.5368 90.6836 18.2554 90.4743 18.0481C90.265 17.8409 89.9823 17.7247 89.6878 17.7247ZM50.0053 27.6219C50.0053 28.9632 49.4687 29.4886 47.9619 29.4886H47.9373C46.4305 29.4886 45.8939 28.9655 45.8939 27.6219V21.1072C45.8939 19.7658 46.4417 19.2382 47.9373 19.2382H47.9619C49.4687 19.2382 50.0053 19.7614 50.0053 21.1072V27.6219ZM54.8633 27.6219C54.8633 28.9632 54.3402 29.4886 52.8512 29.4886H52.7529C51.2952 29.4886 50.7721 28.9543 50.7721 27.6219V26.8103L52.2722 26.7432V27.7515C52.2722 28.1517 52.4578 28.2635 52.7462 28.2635H52.8445C52.9143 28.2746 52.9857 28.269 53.0529 28.2472C53.1201 28.2255 53.1812 28.188 53.2311 28.1381C53.2811 28.0881 53.3185 28.0271 53.3402 27.9599C53.362 27.8927 53.3676 27.8213 53.3565 27.7515V26.6002C53.3478 26.2858 53.2433 25.9816 53.0569 25.7283L51.4629 23.5239C51.063 23.0114 50.836 22.3852 50.8146 21.7354V21.1072C50.8146 19.7658 51.3511 19.2382 52.7953 19.2382H52.8199C54.2776 19.2382 54.8007 19.7614 54.8007 21.1072V21.8539L53.2939 21.9277V20.982C53.2939 20.5952 53.1061 20.4701 52.8199 20.4701H52.7886C52.5136 20.4701 52.3147 20.5841 52.3147 20.982V21.6907C52.3317 21.9925 52.4357 22.2829 52.6143 22.5268L54.215 24.7312C54.622 25.2561 54.8493 25.8981 54.8633 26.5622V27.6219ZM61.9123 29.3656H60.4189L60.5552 24.7178L60.629 22.6386L60.2445 24.7178L59.2474 29.3276H58.3777L57.3784 24.7178L56.9804 22.6252L57.0676 24.7178L57.204 29.3656H55.7106V19.3656H57.4991L58.6169 25.0084L58.8405 26.2291L59.0395 25.0084L60.1573 19.3656H61.9458L61.9123 29.3656ZM66.8307 27.6219C66.8307 28.9632 66.2963 29.4886 64.7873 29.4886H64.7627C63.2559 29.4886 62.7193 28.9655 62.7193 27.6219V21.1072C62.7193 19.7658 63.2693 19.2382 64.7627 19.2382H64.7873C66.2963 19.2382 66.8307 19.7614 66.8307 21.1072V27.6219ZM71.8631 29.3656H70.5686L69.2586 24.7558L68.9612 23.5597L69.0104 24.7558L69.1468 29.3656H67.64V19.3656H68.9366L70.1819 23.7989L70.5418 25.232L70.4926 23.7989L70.3585 19.3656H71.8653L71.8631 29.3656ZM76.7591 27.4967C76.7591 28.838 76.236 29.3656 74.7895 29.3656H72.735V19.3656H74.7895C76.236 19.3656 76.7591 19.8888 76.7591 21.2324V27.4967ZM80.3943 29.3656L80.2467 27.5771H79.1289L78.9791 29.3656H77.3225L78.6795 19.3656H80.6916L82.0509 29.3679L80.3943 29.3656ZM86.4305 29.3656H85.496L85.136 28.6055C84.8365 29.1287 84.4139 29.4998 83.8394 29.4998H83.7902C82.9675 29.4998 82.3572 28.9275 82.3572 27.595V21.1117C82.3572 19.7703 82.9049 19.2427 84.3513 19.2427H84.3759C85.8447 19.2427 86.3679 19.7658 86.3679 21.1117V22.0954L84.8611 22.158V20.982C84.8611 20.5952 84.6733 20.4701 84.3759 20.4701H84.3513C84.0764 20.4701 83.864 20.5841 83.864 20.982V27.5838C83.864 28.1562 84.1144 28.2545 84.3625 28.2545C84.6733 28.2545 84.9237 28.031 84.9237 27.3938V25.0933H84.4139V23.8973H86.426L86.4305 29.3656ZM88.6348 29.3656H87.128V19.3656H88.6348V29.3656Z" fill="black"/>
<path d="M78.2549 16.5352H90.685C91.0246 16.5358 91.3501 16.671 91.5902 16.9111C91.8303 17.1512 91.9654 17.4767 91.966 17.8162V31.1116L94.3559 14L78.2549 16.5352Z" fill="#FCCB6A"/>
</g>
</svg>

<svg xmlns="http://www.w3.org/2000/svg" width="136" height="68" fill="none"><mask id="a" width="64" height="40" x="36" y="14" maskUnits="userSpaceOnUse" style="mask-type:luminance"><path fill="#fff" d="M99.972 14h-63.95v40h63.95V14Z"/></mask><g mask="url(#a)"><path fill="#FCCB6A" d="M44.226 46.915v3.19c0 2.605-1.024 3.651-3.872 3.651h-4.332V34.208h4.064c2.826 0 3.847 1.022 3.847 3.65v2.534c0 1.607-.389 2.629-1.363 3.188 1.169.512 1.656 1.558 1.656 3.335Zm-5.258-10.37v6.111h1.118c.536 0 .894-.223.894-.999v-4.113c0-.78-.364-1-.894-1h-1.118Zm2.312 9.425c0-.778-.39-.973-.926-.973h-1.386v6.428h1.386c.537 0 .926-.224.926-.975v-4.48ZM49.883 33.964h.049c2.935 0 3.975 1.022 3.975 3.653v12.73c0 2.606-1.047 3.653-3.99 3.653h-.035c-2.946 0-3.992-1.024-3.992-3.653v-12.73c-.01-2.602 1.062-3.653 3.992-3.653Zm-1.047 3.41V50.59c0 .78.46 1 1.047 1h.049c.608 0 1.046-.224 1.046-1V37.373c0-.755-.414-1-1.046-1h-.05c-.594 0-1.055.22-1.055 1h.01ZM62.069 51.42v2.336h-6.573V34.208h2.947v17.214l3.626-.002ZM69.03 50.25h-2.19l-.29 3.506h-3.24l2.653-19.548h3.944l2.654 19.548h-3.229l-.301-3.505Zm-.194-2.335-.682-8.035-.223-2.506-.224 2.506-.682 8.035h1.811ZM80.327 51.42v2.336h-6.573V34.208h2.956v17.214l3.617-.002ZM87.29 50.25h-2.192l-.293 3.506h-3.237l2.654-19.548h3.944l2.653 19.548h-3.237l-.293-3.505Zm-.195-2.335-.671-8.035-.224-2.506-.223 2.506-.682 8.035h1.8ZM99.972 53.756h-2.918l-.12-6.961c-.025-.926-.447-1.17-1.071-1.17h-.894v8.131H92.01V34.208h4.066c2.824 0 3.846 1.022 3.846 3.65v3.193c0 1.704-.463 2.75-1.565 3.287 1.117.487 1.462 1.607 1.486 3.577l.128 5.841Zm-5.015-17.214v6.745h1.118c.534 0 .894-.224.894-.975v-4.768c0-.78-.366-1-.894-1l-1.118-.002Z"/><path fill="#000" d="M74.792 20.557h-.541v7.612h.548c.275 0 .474-.112.474-.499V21.07c-.007-.398-.195-.512-.481-.512ZM64.79 20.47h-.025c-.3 0-.534.114-.534.512v6.762c0 .4.223.512.534.512h.025c.313 0 .536-.111.536-.512v-6.762c0-.387-.212-.512-.536-.512ZM47.962 20.47h-.025c-.3 0-.536.114-.536.512v6.762c0 .4.237.512.536.512h.025c.31 0 .537-.111.537-.512v-6.762c0-.387-.213-.512-.537-.512ZM79.688 20.981l-.112 1.284-.349 4.109h.921l-.348-4.11-.112-1.283Z"/><path fill="#000" d="M89.688 17.725H44.899a1.103 1.103 0 0 0-1.118 1.106V30.01a1.117 1.117 0 0 0 1.118 1.118h44.789a1.117 1.117 0 0 0 1.118-1.117V18.83a1.118 1.118 0 0 0-1.118-1.106Zm-39.683 9.897c0 1.341-.536 1.867-2.043 1.867h-.025c-1.506 0-2.043-.524-2.043-1.867v-6.515c0-1.341.548-1.869 2.043-1.869h.025c1.507 0 2.043.523 2.043 1.87v6.514Zm4.858 0c0 1.341-.523 1.867-2.012 1.867h-.098c-1.458 0-1.98-.535-1.98-1.867v-.812l1.5-.067v1.009c0 .4.185.512.473.512h.098a.448.448 0 0 0 .512-.512V26.6a1.543 1.543 0 0 0-.3-.872l-1.593-2.204a3.072 3.072 0 0 1-.648-1.789v-.628c0-1.341.536-1.869 1.98-1.869h.025c1.458 0 1.98.523 1.98 1.87v.746l-1.506.074v-.946c0-.387-.188-.512-.474-.512h-.031c-.275 0-.474.114-.474.512v.709c.017.302.12.592.3.836l1.6 2.204c.407.525.634 1.167.648 1.831v1.06Zm7.05 1.744h-1.494l.136-4.648.074-2.08-.384 2.08-.998 4.61h-.87l-.999-4.61-.398-2.093.088 2.093.136 4.648h-1.493v-10h1.788l1.118 5.642.224 1.221.198-1.22 1.118-5.643h1.789l-.034 10Zm4.918-1.744c0 1.341-.535 1.867-2.044 1.867h-.024c-1.507 0-2.044-.524-2.044-1.867v-6.515c0-1.341.55-1.869 2.044-1.869h.024c1.51 0 2.044.523 2.044 1.87v6.514Zm5.032 1.744H70.57l-1.31-4.61-.298-1.196.05 1.196.136 4.61H67.64v-10h1.297l1.245 4.433.36 1.433-.05-1.433-.133-4.433h1.506l-.002 10Zm4.896-1.87c0 1.342-.523 1.87-1.97 1.87h-2.054v-10h2.055c1.446 0 1.97.523 1.97 1.866v6.265Zm3.635 1.87-.147-1.789h-1.118l-.15 1.789h-1.656l1.357-10h2.012l1.359 10.002-1.657-.002Zm6.036 0h-.934l-.36-.76c-.3.523-.722.894-1.297.894h-.049c-.823 0-1.433-.573-1.433-1.905v-6.483c0-1.342.548-1.87 1.994-1.87h.025c1.469 0 1.992.524 1.992 1.87v.983l-1.507.063v-1.176c0-.387-.188-.512-.485-.512h-.025c-.275 0-.487.114-.487.512v6.602c0 .572.25.67.498.67.311 0 .562-.223.562-.86v-2.3h-.51v-1.197h2.012l.004 5.469Zm2.205 0h-1.507v-10h1.507v10Z"/><path fill="#FCCB6A" d="M78.255 16.535h12.43a1.283 1.283 0 0 1 1.281 1.281v13.296L94.356 14l-16.101 2.535Z"/></g></svg>
